public/design_10/images/logo-footer.svg

<svg width="40" height="40" viewBox="0 0 40 40" fill="none" xmlns="http://www.w3.org/2000/svg">
<g clip-path="url(#clip0_17_85)">
<path d="M20 40C31.0457 40 40 31.0457 40 20C40 8.9543 31.0457 0 20 0C8.9543 0 0 8.9543 0 20C0 31.0457 8.9543 40 20 40Z" fill="#FF746C"/>
<path d="M16.6627 33.9796C15.0211 33.9585 13.6502 32.5602 13.6176 30.8846C13.5913 29.4047 13.5705 27.9249 13.5549 26.4451C12.0751 26.4295 10.5953 26.4087 9.11545 26.3824C7.43975 26.3498 6.04154 24.9789 6.02039 23.3373C5.9932 21.1124 5.9932 18.8876 6.02039 16.6627C6.04147 15.0212 7.43982 13.6505 9.11545 13.6176C10.5953 13.5913 12.0751 13.5705 13.5549 13.5549C13.5705 12.0751 13.5914 10.5953 13.6176 9.11545C13.6503 7.43969 15.0211 6.04154 16.6627 6.02039C18.8876 5.9932 21.1124 5.9932 23.3373 6.02039C24.979 6.04161 26.3497 7.43969 26.3825 9.11545C26.4087 10.5953 26.4296 12.0751 26.4451 13.5549C27.925 13.5705 29.4048 13.5913 30.8846 13.6176C32.5603 13.6502 33.9586 15.0211 33.9796 16.6627C34.0068 18.8876 34.0068 21.1124 33.9796 23.3373C33.9585 24.9789 32.5602 26.3498 30.8846 26.3824C29.4048 26.4087 27.925 26.4295 26.4451 26.4451C26.4296 27.9249 26.4087 29.4047 26.3825 30.8846C26.3497 32.5602 24.979 33.9585 23.3373 33.9796C21.1125 34.0068 18.8876 34.0068 16.6627 33.9796Z" fill="#2A464D"/>
<path d="M21.381 22.4007C21.3784 25.5866 21.3706 28.7725 21.3574 31.9583C22.025 31.9555 22.6925 31.9507 23.36 31.9437C23.9128 31.9379 24.367 31.4764 24.3742 30.9149C24.3963 29.0919 24.4128 27.269 24.4238 25.4461C24.4271 24.8843 24.8845 24.4269 25.4463 24.4236C24.0945 23.7547 22.7387 23.079 21.381 22.4007Z" fill="#E3E3E3"/>
<path d="M24.4238 14.5538C24.4127 12.7309 24.3962 10.908 24.3741 9.08505C24.367 8.52359 23.9126 8.06205 23.3599 8.05621C22.6924 8.04932 22.0249 8.04448 21.3574 8.04163C21.3705 11.2275 21.3783 14.4134 21.381 17.5992C22.7387 16.9209 24.0945 16.2452 25.4462 15.5763C24.8846 15.5731 24.4271 15.1156 24.4238 14.5538Z" fill="#E3E3E3"/>
<path d="M30.915 15.626C30.2371 15.6178 29.5591 15.6103 28.8812 15.6036C28.9103 18.5345 28.9103 21.4654 28.8812 24.3963C29.5591 24.3896 30.237 24.3822 30.915 24.374C31.4766 24.3669 31.9382 23.9124 31.9439 23.3598C31.9671 21.1199 31.9671 18.88 31.9439 16.6402C31.938 16.0876 31.4766 15.6331 30.915 15.626Z" fill="#E3E3E3"/>
<path d="M29.908 23.3788C29.9272 21.1262 29.9272 18.8736 29.908 16.6212C29.9031 16.0653 29.4428 15.6094 28.8812 15.6037C27.0583 15.5857 25.2353 15.5733 23.4124 15.5663C22.8507 15.5643 22.3941 15.107 22.3925 14.5443C22.3865 12.7183 22.3776 10.8921 22.3656 9.06604C22.3617 8.50366 21.91 8.0439 21.3574 8.04165C19.785 8.03509 18.2126 8.03993 16.6402 8.05624C16.0875 8.06214 15.6332 8.52361 15.6261 9.08507C15.604 10.908 15.5874 12.7309 15.5764 14.5539C15.5731 15.1156 15.1156 15.5732 14.5539 15.5763C12.731 15.5874 10.908 15.6039 9.08506 15.626C8.5236 15.6331 8.06206 16.0875 8.05622 16.6402C8.03302 18.8801 8.03302 21.1199 8.05622 23.3598C8.06212 23.9124 8.5236 24.3669 9.08506 24.374C10.908 24.3961 12.7309 24.4126 14.5539 24.4236C15.1155 24.4268 15.573 24.8843 15.5764 25.4461C15.5874 27.2691 15.604 29.092 15.6261 30.9149C15.6332 31.4763 16.0875 31.9381 16.6402 31.9438C18.2126 31.9601 19.785 31.9649 21.3574 31.9583C21.9101 31.9561 22.3616 31.4963 22.3656 30.9339C22.3776 29.1079 22.3866 27.2817 22.3925 25.4557C22.3942 24.893 22.8506 24.4357 23.4124 24.4337C25.2354 24.4268 27.0583 24.4143 28.8812 24.3963C29.4428 24.3906 29.9031 23.9346 29.908 23.3788Z" fill="white"/>
</g>
<defs>
<clipPath id="clip0_17_85">
<rect width="40" height="40" fill="white"/>
</clipPath>
</defs>
</svg>

<svg xmlns="http://www.w3.org/2000/svg" width="40" height="40" fill="none"><g clip-path="url(#a)"><path fill="#FF746C" d="M20 40c11.046 0 20-8.954 20-20S31.046 0 20 0 0 8.954 0 20s8.954 20 20 20"/><path fill="#2A464D" d="M16.663 33.98c-1.642-.021-3.013-1.42-3.045-3.095a614 614 0 0 1-.063-4.44q-2.22-.022-4.44-.063C7.44 26.35 6.042 24.98 6.02 23.337a273 273 0 0 1 0-6.674c.021-1.642 1.42-3.013 3.095-3.045q2.22-.04 4.44-.063a620 620 0 0 1 .063-4.44c.032-1.675 1.403-3.073 3.045-3.095a273 273 0 0 1 6.674 0c1.642.022 3.013 1.42 3.046 3.095q.04 2.22.062 4.44 2.22.023 4.44.063c1.675.032 3.074 1.403 3.095 3.045q.04 3.338 0 6.674c-.021 1.642-1.42 3.013-3.095 3.045q-2.22.04-4.44.063-.023 2.22-.062 4.44c-.033 1.675-1.404 3.073-3.046 3.095q-3.337.04-6.674 0"/><path fill="#E3E3E3" d="M21.381 22.4q-.004 4.78-.024 9.558 1.002-.003 2.003-.014a1.04 1.04 0 0 0 1.014-1.03q.033-2.733.05-5.468a1.03 1.03 0 0 1 1.022-1.022q-2.028-1.005-4.065-2.023M24.424 14.554a906 906 0 0 0-.05-5.469 1.04 1.04 0 0 0-1.014-1.029q-1.001-.01-2.003-.014.02 4.778.024 9.557 2.038-1.018 4.065-2.023a1.03 1.03 0 0 1-1.022-1.022M30.915 15.626q-1.017-.012-2.034-.022.045 4.395 0 8.792 1.017-.01 2.034-.022a1.04 1.04 0 0 0 1.029-1.014q.035-3.36 0-6.72a1.04 1.04 0 0 0-1.029-1.014"/><path fill="#fff" d="M29.908 23.379q.03-3.379 0-6.758a1.037 1.037 0 0 0-1.027-1.017q-2.734-.027-5.469-.038a1.025 1.025 0 0 1-1.02-1.022 1667 1667 0 0 0-.026-5.478 1.025 1.025 0 0 0-1.009-1.024 324 324 0 0 0-4.717.014 1.04 1.04 0 0 0-1.014 1.03 898 898 0 0 0-.05 5.468 1.03 1.03 0 0 1-1.022 1.022q-2.734.017-5.469.05a1.04 1.04 0 0 0-1.029 1.014q-.034 3.36 0 6.72a1.04 1.04 0 0 0 1.03 1.014q2.733.033 5.468.05a1.03 1.03 0 0 1 1.022 1.022q.017 2.734.05 5.469a1.04 1.04 0 0 0 1.014 1.029q2.36.024 4.717.014a1.025 1.025 0 0 0 1.009-1.024q.018-2.739.026-5.478a1.025 1.025 0 0 1 1.02-1.022q2.734-.01 5.47-.038a1.037 1.037 0 0 0 1.026-1.017"/></g><defs><clipPath id="a"><path fill="#fff" d="M0 0h40v40H0z"/></clipPath></defs></svg>
